brandFactory_export/1.Light/Escudo antivirus _1Light.svg

<?xml version="1.0" encoding="UTF-8"?>
<svg width="24px" height="24px" viewBox="0 0 24 24" version="1.1" xmlns="http://www.w3.org/2000/svg" xmlns:xlink="http://www.w3.org/1999/xlink">
    <title>1.Light/Escudo antivirus _1Light</title>
    <g id="Symbols" stroke="none" stroke-width="1" fill="none" fill-rule="evenodd">
        <g id="1.Light/Escudo-antivirus-_1Light" fill="#5CB615" fill-rule="nonzero">
            <path d="M21.1731092,14.8537815 C21.6436975,12.1008403 21.7008403,6.01680672 21.707563,4.15798319 C19.5394958,4.33613445 18.2420168,3.47563025 16.9915966,2.63865546 C15.7781513,1.82521008 14.5210084,0.988235294 12.3529412,0.98487395 L12.3462185,0.98487395 C10.1747899,0.98487395 8.9210084,1.82521008 7.70420168,2.63865546 C6.44369748,3.4789916 5.14621849,4.33613445 2.98823529,4.16470588 C2.99495798,6.03361345 3.05210084,12.1042017 3.53277311,14.8571429 C4.12773109,18.3159664 11.0487395,21.9327731 12.3462185,22.5848739 C13.6504202,21.9327731 20.5781513,18.312605 21.1731092,14.8537815 Z M22.6858029,3.60336134 C22.6858029,3.93277311 22.7058824,11.6840336 22.1378151,15.0252101 C21.3983193,19.3243697 12.9210084,23.405042 12.5613445,23.5764706 C12.4297486,23.6403372 12.2761338,23.6403372 12.1445378,23.5764706 C11.7815126,23.405042 3.31428571,19.3210084 2.57478992,15.0252101 C1.99327731,11.6840336 2.01344538,3.93277311 2.01680672,3.60336134 C2.01680672,3.45546218 2.08403361,3.31428571 2.20168067,3.22016807 C2.31596639,3.12941176 2.46722689,3.09243697 2.61176471,3.12605042 C4.71596639,3.4487395 5.85546218,2.69579832 7.1697479,1.81848739 C8.44369748,0.964705882 9.88571429,0 12.3462185,0 L12.3529412,0 C14.8134454,0.00336134454 16.2588235,0.968067227 17.5294118,1.81848739 C18.8436975,2.69579832 19.9731092,3.45882353 22.0806723,3.12605042 C22.2252101,3.10252101 22.3764706,3.1394958 22.4907563,3.23361345 C22.605042,3.32436975 22.6756303,3.45882353 22.6858029,3.60336134 Z M12.3495798,15.6067227 C14.194958,15.6067227 14.7260504,14.8941176 14.7260504,12.4268908 C14.7260504,10.8806723 14.4941176,10.0470588 13.9596639,9.64033613 C13.610084,9.37815126 13.0823529,9.24705882 12.3495798,9.24705882 C11.610084,9.24705882 11.0789916,9.37815126 10.7294118,9.64705882 C10.1983193,10.0571429 9.97310924,10.8907563 9.97310924,12.4268908 C9.97310924,14.8941176 10.5042017,15.6067227 12.3495798,15.6067227 L12.3495798,15.6067227 Z M12.3529412,7.43865546 C10.7092437,7.43865546 10.7092437,7.84537815 10.7092437,8.31932773 C10.7092437,8.40672269 10.7159664,8.47731092 10.7260504,8.54117647 C11.1697479,8.35966387 11.7008403,8.26218487 12.3495798,8.26218487 C13.0016807,8.26218487 13.5361345,8.35966387 13.9798319,8.54117647 C13.989916,8.47731092 13.9966387,8.40336134 13.9966387,8.31596639 C13.9966387,7.84537815 13.9966387,7.43865546 12.3529412,7.43865546 L12.3529412,7.43865546 Z M16.5714286,11.4957983 C16.8403361,11.4957983 17.0588235,11.7176471 17.0588235,11.9865546 L17.0588235,12.897479 C17.0588235,13.1697479 16.8403361,13.3882353 16.5714286,13.3882353 C16.2991597,13.3882353 16.0806723,13.1663866 16.0840336,12.897479 L16.0840336,12.4773109 L15.7042017,12.4773109 C15.7008403,13.2739496 15.6268908,13.9764706 15.4521008,14.5714286 L16.4201681,14.8672269 C16.6352941,14.9344538 16.7764706,15.1394958 16.7630252,15.3647059 L16.692437,16.7361345 C16.6789916,16.9983193 16.4672269,17.2033613 16.205042,17.2033613 L16.1781513,17.2033613 C15.9092437,17.1865546 15.7008403,16.9546218 15.7142857,16.6857143 L15.7680672,15.697479 L15.0420168,15.4756303 C14.5478992,16.1815126 13.7176471,16.5882353 12.3495798,16.5882353 C10.9781513,16.5882353 10.1445378,16.1781513 9.65378151,15.4689076 L8.90756303,15.697479 L8.95798319,16.6857143 C8.97142857,16.9546218 8.76638655,17.1865546 8.49747899,17.2033613 L8.47058824,17.2033613 C8.20840336,17.2033613 7.99663866,16.9983193 7.98319328,16.7361345 L7.91260504,15.3647059 C7.89915966,15.1394958 8.04369748,14.9344538 8.25882353,14.8672269 L9.25042017,14.5647059 C9.07563025,13.9697479 9.00504202,13.2739496 9.00168067,12.4773109 L8.62184874,12.4773109 L8.62184874,12.897479 C8.62184874,13.1697479 8.40336134,13.3882353 8.13445378,13.3882353 C7.86218487,13.3882353 7.64369748,13.1663866 7.64702055,12.897479 L7.64702055,11.9865546 C7.64702055,11.7142857 7.86554622,11.4957983 8.13445378,11.4957983 L9.03529412,11.4957983 C9.0789916,10.8773109 9.2,10.2756303 9.44537815,9.76134454 L8.26218487,9.39831933 C8.04705882,9.33109244 7.90252101,9.12605042 7.91596639,8.90084034 L7.98319328,7.52941176 C7.99663866,7.25714286 8.23193277,7.03865546 8.49747899,7.06218487 C8.76638655,7.07563025 8.97142857,7.30756303 8.95798319,7.57983193 L8.90756303,8.56470588 L9.79495798,8.83697479 C9.75462185,8.66554622 9.73445378,8.4907563 9.73445378,8.31260504 C9.73445378,7.14285714 10.4268908,6.7092437 11.1563025,6.54453782 L11.0722689,6.45714286 C10.8806723,6.26554622 10.8806723,5.95294118 11.0722689,5.76134454 C11.2605042,5.5697479 11.5663866,5.5697479 11.7546218,5.75462185 L11.7613445,5.76134454 L12.2084034,6.20840336 C12.2689076,6.27563025 12.312605,6.35630252 12.3294118,6.44369748 L12.3394958,6.44369748 C12.3563025,6.35630252 12.4,6.27226891 12.4605042,6.20840336 L12.9042017,5.76134454 C13.092437,5.5697479 13.3983193,5.56638655 13.5865546,5.75462185 C13.589916,5.75798319 13.5932773,5.75798319 13.5932773,5.76134454 C13.7848739,5.95294118 13.7848739,6.26554622 13.5932773,6.45714286 L13.512605,6.53781513 C14.2521008,6.69243697 14.9714286,7.12268908 14.9714286,8.31260504 C14.9714286,8.50084034 14.9478992,8.66554622 14.9109244,8.82352941 L15.7647059,8.56134454 L15.7142857,7.57647059 C15.7008403,7.30756303 15.9058824,7.07563025 16.1747899,7.05882353 C16.4403361,7.04201681 16.6689076,7.24369748 16.6857143,7.5092437 L16.6857143,7.52268908 L16.7596639,8.89411765 C16.7731092,9.11932773 16.6319328,9.32436975 16.4168067,9.39159664 L15.2537815,9.74789916 C15.502521,10.2621849 15.6201681,10.8672269 15.6672269,11.4857143 C15.6705882,11.4957983 16.5714286,11.4957983 16.5714286,11.4957983 Z M12.312605,10.4773109 C12.5815126,10.4773109 12.8,10.6991597 12.8,10.9680672 L12.8,14.3798319 C12.8,14.6521008 12.5815126,14.8705882 12.312605,14.8705882 C12.0403361,14.8705882 11.8218487,14.6487395 11.8252101,14.3798319 L11.8252101,10.9714286 C11.8252101,10.6991597 12.0436975,10.4806723 12.312605,10.4773109 Z" id="Escudo-antivirus-_1Light"></path>
        </g>
    </g>
</svg>

<svg width="24" height="24" viewBox="0 0 24 24" xmlns="http://www.w3.org/2000/svg"><path d="M21.173 14.854c.47-2.753.528-8.837.535-10.696-2.169.178-3.466-.682-4.716-1.52-1.214-.813-2.471-1.65-4.64-1.653h-.006c-2.171 0-3.425.84-4.642 1.654-1.26.84-2.558 1.697-4.716 1.526.007 1.869.064 7.94.545 10.692.595 3.459 7.516 7.076 8.813 7.728 1.304-.652 8.232-4.272 8.827-7.731zm1.513-11.25c0 .329.02 8.08-.548 11.421-.74 4.3-9.217 8.38-9.577 8.551a.477.477 0 01-.416 0c-.363-.171-8.83-4.255-9.57-8.55-.582-3.342-.562-11.093-.558-11.423a.49.49 0 01.595-.477c2.104.323 3.243-.43 4.558-1.308C8.444.965 9.886 0 12.346 0h.007c2.46.003 3.906.968 5.176 1.818 1.315.878 2.444 1.64 4.552 1.308a.52.52 0 01.605.477zM12.35 15.606c1.845 0 2.376-.713 2.376-3.18 0-1.546-.232-2.38-.766-2.787-.35-.262-.878-.393-1.61-.393-.74 0-1.271.131-1.62.4-.532.41-.757 1.244-.757 2.78 0 2.467.531 3.18 2.377 3.18zm.003-8.168c-1.644 0-1.644.406-1.644.88 0 .088.007.158.017.222.444-.181.975-.279 1.624-.279.652 0 1.186.098 1.63.28.01-.065.017-.139.017-.226 0-.47 0-.877-1.644-.877zm4.218 4.057a.49.49 0 01.488.49v.911a.488.488 0 11-.975 0v-.42h-.38c-.003.797-.077 1.5-.252 2.094l.968.296a.49.49 0 01.343.498l-.07 1.371a.488.488 0 01-.488.467h-.027a.496.496 0 01-.464-.517l.054-.989-.726-.221c-.494.706-1.324 1.112-2.692 1.112-1.372 0-2.205-.41-2.696-1.12l-.746.23.05.988a.494.494 0 01-.46.517H8.47a.488.488 0 01-.488-.467l-.07-1.371a.493.493 0 01.346-.498l.991-.302c-.174-.595-.245-1.291-.248-2.088h-.38v.42a.488.488 0 11-.975 0v-.91c0-.273.219-.491.487-.491h.901c.044-.619.165-1.22.41-1.735l-1.183-.363a.493.493 0 01-.346-.497l.067-1.372a.487.487 0 11.975.05l-.05.986.887.272a2.282 2.282 0 01-.06-.524c0-1.17.692-1.604 1.421-1.768l-.084-.088a.493.493 0 010-.696.483.483 0 01.683-.006l.006.006.447.447c.06.068.105.148.121.236h.01a.48.48 0 01.122-.236l.443-.447a.48.48 0 01.683-.006c.003.003.006.003.006.006a.493.493 0 010 .696l-.08.08c.74.155 1.458.586 1.458 1.776 0 .188-.023.353-.06.51l.854-.262-.05-.985a.494.494 0 01.46-.517.482.482 0 01.51.45v.014l.075 1.371a.49.49 0 01-.343.498l-1.163.356c.249.514.366 1.12.413 1.738.004.01.904.01.904.01zm-4.258-1.019a.49.49 0 01.487.491v3.412a.488.488 0 11-.975 0V10.97c0-.272.219-.49.488-.494z" fill="#5CB615" fill-rule="nonzero"/></svg>
